usr/share/icons/biglinux-icons-material/24/actions/office-chart-polar-stacked.svg

<svg xmlns="http://www.w3.org/2000/svg" viewBox="0 0 24 24">
  <defs id="defs3051">
    <style type="text/css" id="current-color-scheme">
      .ColorScheme-Text {
        color:#dedede;
      }
      </style>
  </defs>
 <path style="fill:currentColor;fill-opacity:1;stroke:none" 
     d="M 12 4 C 7.568 4 4 7.568 4 12 C 4 16.432 7.568 20 12 20 C 16.432 20 20 16.432 20 12 C 20 7.568 16.432 4 12 4 z M 12 5 C 13.365929 5 14.634027 5.3931964 15.708984 6.0644531 L 13.058594 10.306641 C 13.578053 10.631496 13.928885 11.187907 13.982422 11.833984 L 18.970703 11.417969 C 18.986477 11.610583 19 11.803182 19 12 C 19 15.878 15.878 19 12 19 C 8.122 19 5 15.878 5 12 C 5 8.122 8.122 5 12 5 z M 12 6 C 10.098559 6 8.4122069 6.8783098 7.3144531 8.25 L 10.443359 10.753906 C 10.809292 10.297096 11.366524 10 12 10 L 12 9.5 L 12 7.5 L 12 6 z M 10.583984 13.416016 L 8.4609375 15.539062 C 9.3646875 16.442813 10.615 17 12 17 L 12 15.5 L 12 14 C 11.446 14 10.945484 13.777516 10.583984 13.416016 z "
     class="ColorScheme-Text"
     />
</svg>

<svg xmlns="http://www.w3.org/2000/svg" viewBox="0 0 24 24"><path d="M12 4c-4.432 0-8 3.568-8 8s3.568 8 8 8 8-3.568 8-8-3.568-8-8-8zm0 1c1.366 0 2.634.393 3.709 1.064l-2.65 4.243c.52.324.87.88.923 1.527l4.989-.416c.015.193.029.385.029.582 0 3.878-3.122 7-7 7s-7-3.122-7-7 3.122-7 7-7zm0 1a5.98 5.98 0 0 0-4.686 2.25l3.13 2.504A1.988 1.988 0 0 1 12 10V6zm-1.416 7.416-2.123 2.123A4.985 4.985 0 0 0 12 17v-3a1.994 1.994 0 0 1-1.416-.584z" style="fill:currentColor;fill-opacity:1;stroke:none;color:#dedede"/></svg>
